src/shared/components/icons/star.svg

<svg viewBox="0 0 24 24" fill="none" xmlns="http://www.w3.org/2000/svg">
  <path fill-rule="evenodd" clip-rule="evenodd" d="M13.1043 4.17701L14.9317 7.82776C15.1108 8.18616 15.4565 8.43467 15.8573 8.49218L19.9453 9.08062C20.9554 9.22644 21.3573 10.4505 20.6263 11.1519L17.6702 13.9924C17.3797 14.2718 17.2474 14.6733 17.3162 15.0676L18.0138 19.0778C18.1856 20.0698 17.1298 20.8267 16.227 20.3574L12.5732 18.4627C12.215 18.2768 11.786 18.2768 11.4268 18.4627L7.773 20.3574C6.87023 20.8267 5.81439 20.0698 5.98724 19.0778L6.68385 15.0676C6.75257 14.6733 6.62033 14.2718 6.32982 13.9924L3.37368 11.1519C2.64272 10.4505 3.04464 9.22644 4.05466 9.08062L8.14265 8.49218C8.54354 8.43467 8.89028 8.18616 9.06937 7.82776L10.8957 4.17701C11.3477 3.27433 12.6523 3.27433 13.1043 4.17701Z" fill="currentColor"/>
</svg>

<svg viewBox="0 0 24 24" fill="currentColor" xmlns="http://www.w3.org/2000/svg">
  <path clip-rule="evenodd" d="m13.104 4.177 1.828 3.65c.179.36.524.608.925.665l4.088.589c1.01.145 1.412 1.37.681 2.07l-2.956 2.841c-.29.28-.423.681-.354 1.076l.698 4.01c.172.992-.884 1.749-1.787 1.28l-3.654-1.895a1.25 1.25 0 0 0-1.146 0l-3.654 1.894c-.903.47-1.959-.287-1.786-1.28l.697-4.01a1.2 1.2 0 0 0-.354-1.075l-2.956-2.84c-.731-.701-.33-1.926.68-2.071l4.089-.589c.4-.057.747-.306.926-.664l1.827-3.651c.452-.903 1.756-.903 2.208 0" stroke="currentColor" stroke-width="1.5" stroke-linecap="round" stroke-linejoin="round"/>
</svg>
